X:1
T:St. Pantelejmon, CM
T:St. Pantelejmon, CM
T:Henry Thomas Smart (1813-1879)
T:Public Domain Courtesy of the Cyber Hymnal™
C:Henry Thomas Smart (1813-1879)
Z:Public Domain
Z:Courtesy of the Cyber Hymnal™
%%score ( 1 2 ) ( 3 4 )
L:1/8
Q:1/4=110
M:4/4
K:Eb
V:1 treble 
V:2 treble 
V:3 bass 
V:4 bass 
V:1
 [EB]2 | [EB]2 [DB]2 [Ee]2 [EG]2 | [EA]2 [Ec]2 [EB]2 E2 | [EF]2 [EA]2 [EG]2 [DF]2 | [EG]6 [FB]2 | %5
 G2 e2 [Bd]2 [Gc]2 | [FB]2 z [DB]2 (FG) x | A2 [EG]2 [EF]2 [DF]2 | E6 |] %9
V:2
 x2 | x8 | x6 E2 | x8 | x8 | G2 (G=A) x4 | x2 (=A2 E) x D2 | (CD) x6 | E6 |] %9
V:3
 [E,G,]2 | [G,B,]2 B,2 [G,B,]2 [E,B,]2 | [C,A,]2 [A,,A,]2 [E,G,]2 [C,G,]2 | %3
 [A,C]2 [F,C]2 B,2 [B,,B,]2 | [E,B,]6 [D,B,]2 | [E,B,]2 [C,C]2 [D,F]2 [E,E]2 | %6
 [F,D]2 [F,C]2 [B,,B,]2 [B,,B,]2 | [F,,A,]2 [G,,B,]2 [A,,C]2 (B,A,) | [E,G,]6 |] %9
V:4
 x2 | x2 (B,A,) x4 | x8 | x4 B,2 x2 | x8 | x8 | x8 | x6 B,,2 | x6 |] %9

